!!!OTL-incipit: ICH SCHWING MEIN HORN INS JAMMERTHAL
!!!ARE: Europa, Mitteleuropa, Deutschland
!!!SCT: Z0209
!!!TXL: @@DE
!!!YEM: Copyright 1995, estate of Helmut Schaffrath.
**kern	**text
*ICvox	*
*M2/2	*
*met(c|)	*
*k[]	*
*C:	*
=1	=1
!LO:TX:a:t=Altdeutſch.	!
!LO:TX:a:t=Jägerlied aus dem ſechsʒehnten Jahrhundert.	!
{2cc	Jch
4ee	ſchwing'
4ee	mein
=2	=2
(2dd	Horn
4b)}	.
{4cc	in's
=3	=3
4b	Jam-
4g	.
4a	.
4a	-mer-
=4	=4
2g	-thal,
4r}	.
{4g	mein'
=5	=5
4cc	Freud'
4dd	iſt
2ee	mir
=6	=6
4dd	ver-
4.gg	.
8ff	.
8ee	.
8dd	.
=7	=7
(4cc	-ſchwunden,
4dd	.
2cc)}	.
=8	=8
{2cc	Jch
4ee	hab'
4ee	ge-
=9	=9
(2dd	-jagt,
4b)}	.
{4cc	muß
=10	=10
4b	ab-
4g	.
4a	.
4a	-e-
=11	=11
2g	-lan,
4r}	.
{4g	das
=12	=12
4cc	Wild
4dd	läuft
2ee	vor
=13	=13
4dd	den
4.gg	.
8ff	.
8ee	.
8dd	.
=14	=14
(4cc	Hun-
4dd	.
4cc)}	-den.
{4ee	Ein
=15	=15
4ee	e-
4ee	-del
4cc	Thier
4cc	in
=16	=16
2ff	die-
2ee	-ſem
=17	=17
2dd	Feld
4r}	.
{4dd	hatt'
=18	=18
2ee	ich
2ff	mir
=19	=19
2.gg	aus-
4gg	-er-
=20	=20
4aa	-ko-
4ee	.
2ff	.
=21	=21
2.ee}	-ren,
{4ee	das
=22	=22
2ee	ſchied
2ee	von
=23	=23
2.dd	mir
4cc	als
=24	=24
4dd	ich
4b	es
2a	.
=25	=25
2.g}	meld',
{4gg	mein
=26	=26
2ee	Ja-
2ee	-gen
=27	=27
2cc	iſt
2cc	ver-
=28	=28
2ff	-lo-
4dd	.
4ee	.
=29	=29
4ff	.
2gg	.
4ff	.
=30	=30
4gg	.
4cc	.
2dd	.
=31	=31
1cc}	-ren.
==	==
!!!AGN: Jaeger - Lied
!!!ONB: ESAC (Essen Associative Code) Database: ZUCCAL
!!!AMT: simple duple
!!!AIN: vox
!!!EED: Helmut Schaffrath
!!!EEV: 1.0
!!!GTL: III. Soldaten-, Jaeger-, Schiffer-, Fuhrmanns- und Handwerks-Lieder.
!!!URL-scan: https://www.digitale-sammlungen.de/de/view/bsb11160571?page=388
!!!ENC: Anna Maria Matuszewska
!!!EEV: 2025/01/29
*-	*-
